assets/file-smile-white-4a5bd134.svg

<!DOCTYPE svg PUBLIC "-//W3C//DTD SVG 1.1//EN" "http://www.w3.org/Graphics/SVG/1.1/DTD/svg11.dtd">
<!-- Uploaded to: SVG Repo, www.svgrepo.com, Transformed by: SVG Repo Mixer Tools -->
<svg width="800px" height="800px" viewBox="0 0 24 24" fill="none" xmlns="http://www.w3.org/2000/svg">
<g id="SVGRepo_bgCarrier" stroke-width="0"/>
<g id="SVGRepo_tracerCarrier" stroke-linecap="round" stroke-linejoin="round"/>
<g id="SVGRepo_iconCarrier"> <path d="M19.3517 7.61665L15.3929 4.05375C14.2651 3.03868 13.7012 2.53114 13.0092 2.26562L13 5.00011C13 7.35713 13 8.53564 13.7322 9.26787C14.4645 10.0001 15.643 10.0001 18 10.0001H21.5801C21.2175 9.29588 20.5684 8.71164 19.3517 7.61665Z" fill="#ffffff"/> <path fill-rule="evenodd" clip-rule="evenodd" d="M14 22H10C6.22876 22 4.34315 22 3.17157 20.8284C2 19.6569 2 17.7712 2 14V10C2 6.22876 2 4.34315 3.17157 3.17157C4.34315 2 6.23869 2 10.0298 2C10.6358 2 11.1214 2 11.53 2.01666C11.5166 2.09659 11.5095 2.17813 11.5092 2.26057L11.5 5.09497C11.4999 6.19207 11.4998 7.16164 11.6049 7.94316C11.7188 8.79028 11.9803 9.63726 12.6716 10.3285C13.3628 11.0198 14.2098 11.2813 15.0569 11.3952C15.8385 11.5003 16.808 11.5002 17.9051 11.5001L18 11.5001H21.9574C22 12.0344 22 12.6901 22 13.5629V14C22 17.7712 22 19.6569 20.8284 20.8284C19.6569 22 17.7712 22 14 22ZM17 16C17.5523 16 18 15.3284 18 14.5C18 13.6716 17.5523 13 17 13C16.4477 13 16 13.6716 16 14.5C16 15.3284 16.4477 16 17 16ZM8.37604 17.0841C8.60581 16.7394 9.07146 16.6463 9.4161 16.876C10.9808 17.9192 13.0193 17.9192 14.5841 16.876C14.9287 16.6463 15.3944 16.7394 15.6241 17.0841C15.8539 17.4287 15.7608 17.8944 15.4161 18.1241C13.3475 19.5032 10.6526 19.5032 8.58405 18.1241C8.23941 17.8944 8.14628 17.4287 8.37604 17.0841ZM7 16C7.55228 16 8 15.3284 8 14.5C8 13.6716 7.55228 13 7 13C6.44772 13 6 13.6716 6 14.5C6 15.3284 6.44772 16 7 16Z" fill="#ffffff"/> </g>
</svg>

<svg xmlns="http://www.w3.org/2000/svg" width="800px" height="800px" fill="none" viewBox="0 0 24 24"><g fill="#fff"><path d="m19.352 7.617-3.96-3.563c-1.127-1.015-1.69-1.523-2.383-1.788L13 5c0 2.357 0 3.536.732 4.268S15.643 10 18 10h3.58c-.362-.704-1.012-1.288-2.228-2.383"/><path fill-rule="evenodd" d="M14 22h-4c-3.771 0-5.657 0-6.828-1.172S2 17.771 2 14v-4c0-3.771 0-5.657 1.172-6.828S6.239 2 10.03 2c.606 0 1.091 0 1.5.017q-.02.12-.02.244l-.01 2.834c0 1.097 0 2.067.105 2.848.114.847.375 1.694 1.067 2.386.69.69 1.538.952 2.385 1.066.781.105 1.751.105 2.848.105h4.052c.043.534.043 1.19.043 2.063V14c0 3.771 0 5.657-1.172 6.828S17.771 22 14 22m3-6c.552 0 1-.672 1-1.5s-.448-1.5-1-1.5-1 .672-1 1.5.448 1.5 1 1.5m-8.624 1.084a.75.75 0 0 1 1.04-.208 4.66 4.66 0 0 0 5.168 0 .75.75 0 0 1 .832 1.248 6.16 6.16 0 0 1-6.832 0 .75.75 0 0 1-.208-1.04M7 16c.552 0 1-.672 1-1.5S7.552 13 7 13s-1 .672-1 1.5.448 1.5 1 1.5" clip-rule="evenodd"/></g></svg>
